img/icons/menu.svg

<svg width="48" height="48" viewBox="0 0 48 48" fill="none" xmlns="http://www.w3.org/2000/svg">
<path d="M18 36V33H42V36H18ZM6 25.5V22.5H42V25.5H6ZM6 15V12H42V15H6Z" fill="#FEFFFE"/>
</svg>

<svg xmlns="http://www.w3.org/2000/svg" height="48" width="48"><path d="M6 36v-3h36v3Zm0-10.5v-3h36v3ZM6 15v-3h36v3Z"/></svg>
